src/assets/duotone/SecurityTime.svg

<svg width="24" height="24" viewBox="0 0 24 24"  xmlns="http://www.w3.org/2000/svg">
<path opacity="0.4" d="M10.9598 2.11037L5.4598 4.17037C4.4098 4.57037 3.5498 5.81037 3.5498 6.94037V15.0404C3.5498 15.8504 4.0798 16.9204 4.7298 17.4004L10.2298 21.5104C11.1998 22.2404 12.7898 22.2404 13.7598 21.5104L19.2598 17.4004C19.9098 16.9104 20.4398 15.8504 20.4398 15.0404V6.94037C20.4398 5.82037 19.5798 4.57037 18.5298 4.18037L13.0298 2.12037C12.4698 1.90037 11.5298 1.90037 10.9598 2.11037Z" />
<path d="M12 16.25C9.38 16.25 7.25 14.12 7.25 11.5C7.25 8.88 9.38 6.75 12 6.75C14.62 6.75 16.75 8.88 16.75 11.5C16.75 14.12 14.62 16.25 12 16.25ZM12 8.25C10.21 8.25 8.75 9.71 8.75 11.5C8.75 13.29 10.21 14.75 12 14.75C13.79 14.75 15.25 13.29 15.25 11.5C15.25 9.71 13.79 8.25 12 8.25Z" />
<path d="M10.9999 13.2498C10.7499 13.2498 10.4999 13.1198 10.3599 12.8898C10.1499 12.5298 10.2599 12.0698 10.6199 11.8598L11.3799 11.3998C11.4599 11.3498 11.4999 11.2698 11.4999 11.1898V10.2598C11.4999 9.84977 11.8399 9.50977 12.2499 9.50977C12.6599 9.50977 12.9999 9.83977 12.9999 10.2498V11.1798C12.9999 11.7898 12.6699 12.3698 12.1499 12.6798L11.3799 13.1398C11.2699 13.2198 11.1299 13.2498 10.9999 13.2498Z" />
</svg>

<?xml version="1.0" encoding="UTF-8"?>
<svg width="24" height="24" viewBox="0 0 24 24" xmlns="http://www.w3.org/2000/svg">
 <path d="m10.96 2.1104-5.5 2.06c-1.05 0.4-1.91 1.64-1.91 2.77v8.1c0 0.81 0.53 1.88 1.18 2.36l5.5 4.11c0.97 0.73 2.56 0.73 3.53 0l5.5-4.11c0.65-0.49 1.18-1.55 1.18-2.36v-8.1c0-1.12-0.86-2.37-1.91-2.76l-5.5-2.06c-0.56-0.22-1.5-0.22-2.07-0.01z" opacity=".4"/>
 <path d="m12 16.25c-2.62 0-4.75-2.13-4.75-4.75s2.13-4.75 4.75-4.75 4.75 2.13 4.75 4.75-2.13 4.75-4.75 4.75zm0-8c-1.79 0-3.25 1.46-3.25 3.25s1.46 3.25 3.25 3.25 3.25-1.46 3.25-3.25-1.46-3.25-3.25-3.25z"/>
 <path d="m11 13.25c-0.25 0-0.5-0.13-0.64-0.36-0.21-0.36-0.1-0.82 0.26-1.03l0.76-0.46c0.08-0.05 0.12-0.13 0.12-0.21v-0.93c0-0.41003 0.34-0.75003 0.75-0.75003s0.75 0.33 0.75 0.74003v0.93c0 0.61-0.33 1.19-0.85 1.5l-0.77 0.46c-0.11 0.08-0.25 0.11-0.38 0.11z"/>
</svg>
